apps/scalable/asunder.svg

<svg xmlns="http://www.w3.org/2000/svg" style="isolation:isolate" width="256" height="256"><defs><filter id="a" width="270.648" height="254.338" x="-7.32" y="2.95" filterUnits="userSpaceOnUse"><feGaussianBlur xmlns="http://www.w3.org/2000/svg" in="SourceGraphic" stdDeviation="4.294"/><feOffset xmlns="http://www.w3.org/2000/svg" dy="4" result="pf_100_offsetBlur"/><feFlood xmlns="http://www.w3.org/2000/svg" flood-opacity=".4"/><feComposite xmlns="http://www.w3.org/2000/svg" in2="pf_100_offsetBlur" operator="in" result="pf_100_dropShadow"/><feBlend xmlns="http://www.w3.org/2000/svg" in="SourceGraphic" in2="pf_100_dropShadow"/></filter></defs><path fill="#5D5D5D" d="M165.685 11.947c74.055 0 84.639 10.557 84.639 84.544v59.251c0 73.986-10.584 84.543-84.639 84.543h-75.37c-74.055 0-84.639-10.557-84.639-84.543V96.491c0-73.987 10.584-84.544 84.639-84.544h75.37z" filter="url(#a)"/><linearGradient id="b" x1=".234" x2=".754" y1=".161" y2=".822" gradientTransform="matrix(165.704 0 0 165 45.148 44.5)" gradientUnits="userSpaceOnUse"><stop offset="0%" stop-color="#dedbde"/><stop offset="50%" stop-color="#e6e6e6"/><stop offset="100%" stop-color="#d2d2d2"/></linearGradient><path fill="url(#b)" d="M138.712 44.5c.56.108 1.128.198 1.679.328 1.939 4.758 3.365 10.703 5.288 15.49-5.323 3.404-10.423 6.943-15.151 10.927 0 .35 4.035 3.696 7.78 6.974l6.821 5.967-8.888 5.899c-4.735 3.153-7.429 4.958-8.953 5.821-.429.243-.744.399-1.003.51.571-.028 1.131-.081 1.715-.081 18.019 0 30.313 13.963 30.313 30.313 0 16.684-13.295 30.313-30.313 30.313-17.352 0-30.313-13.966-30.313-30.313 0-15.889 11.168-28.982 27.801-30.192-.027-.053-.057-.104-.057-.19 0-.326 1.116-3.169 2.48-6.254 1.364-3.085 2.317-5.646 2.132-5.753-4.949-4.769-8.126-7.746-13.633-13.014 4.049-4.277 7.204-7.8 10.328-12.007l-6.817-8.196c-3.392-4.085-3.792-4.434-5.405-6.15-39.455 6.401-69.368 40.428-69.368 81.756 0 45.924 36.928 82.852 82.852 82.852 45.924 0 82.852-36.928 82.852-82.852 0-42.289-31.322-76.927-72.14-82.148z"/><g opacity=".4"><linearGradient id="c" x1=".517" x2=".517" y2="1"><stop offset="0%" stop-color="#fff"/><stop offset="12.5%" stop-opacity=".098" stop-color="#fff"/><stop offset="92.5%" stop-opacity=".098"/><stop offset="100%" stop-opacity=".498"/></linearGradient><path fill="none" stroke="url(#c)" stroke-linecap="round" stroke-linejoin="round" stroke-width="4.077" d="M165.685 11.947c74.055 0 84.639 10.557 84.639 84.544v59.251c0 73.986-10.584 84.543-84.639 84.543h-75.37c-74.055 0-84.639-10.557-84.639-84.543V96.491c0-73.987 10.584-84.544 84.639-84.544h75.37z" vector-effect="non-scaling-stroke"/></g><path fill="#FFF" d="M5.676 126.116v29.626c0 73.986 10.584 84.543 84.639 84.543h75.37c74.055 0 84.639-10.557 84.639-84.543v-29.626H5.676z" opacity=".1"/></svg>

<svg xmlns="http://www.w3.org/2000/svg" style="isolation:isolate" width="256" height="256" viewBox="0 0 256 256">
 <defs>
  <filter id="BDFPNViVTs1MEWLvT0SqeJKV1yIoylGk" width="270.648" height="254.338" x="-7.32" y="2.95" filterUnits="userSpaceOnUse">
   <feGaussianBlur xmlns="http://www.w3.org/2000/svg" in="SourceGraphic" stdDeviation="4.294"/>
   <feOffset xmlns="http://www.w3.org/2000/svg" dx="0" dy="4" result="pf_100_offsetBlur"/>
   <feFlood xmlns="http://www.w3.org/2000/svg" flood-opacity=".4"/>
   <feComposite xmlns="http://www.w3.org/2000/svg" in2="pf_100_offsetBlur" operator="in" result="pf_100_dropShadow"/>
   <feBlend xmlns="http://www.w3.org/2000/svg" in="SourceGraphic" in2="pf_100_dropShadow" mode="normal"/>
  </filter>
 </defs>
 <g filter="url(#BDFPNViVTs1MEWLvT0SqeJKV1yIoylGk)">
  <path fill="#5D5D5D" d="M 165.685 11.947 C 239.74 11.947 250.324 22.504 250.324 96.491 L 250.324 155.742 C 250.324 229.728 239.74 240.285 165.685 240.285 L 90.315 240.285 C 16.26 240.285 5.676 229.728 5.676 155.742 L 5.676 96.491 C 5.676 22.504 16.26 11.947 90.315 11.947 L 165.685 11.947 Z"/>
 </g>
 <linearGradient id="_lgradient_57" x1=".234" x2=".754" y1=".161" y2=".822" gradientTransform="matrix(165.704,0,0,165,45.148,44.5)" gradientUnits="userSpaceOnUse">
  <stop offset="0%" style="stop-color:rgb(222,219,222)"/>
  <stop offset="50%" style="stop-color:rgb(230,230,230)"/>
  <stop offset="100%" style="stop-color:rgb(210,210,210)"/>
 </linearGradient>
 <path fill="url(#_lgradient_57)" d="M 138.712 44.5 C 139.272 44.608 139.84 44.698 140.391 44.828 C 142.33 49.586 143.756 55.531 145.679 60.318 C 140.356 63.722 135.256 67.261 130.528 71.245 C 130.528 71.595 134.563 74.941 138.308 78.219 L 145.129 84.186 L 136.241 90.085 C 131.506 93.238 128.812 95.043 127.288 95.906 C 126.859 96.149 126.544 96.305 126.285 96.416 C 126.856 96.388 127.416 96.335 128 96.335 C 146.019 96.335 158.313 110.298 158.313 126.648 C 158.313 143.332 145.018 156.961 128 156.961 C 110.648 156.961 97.687 142.995 97.687 126.648 C 97.687 110.759 108.855 97.666 125.488 96.456 C 125.461 96.403 125.431 96.352 125.431 96.266 C 125.431 95.94 126.547 93.097 127.911 90.012 C 129.275 86.927 130.228 84.366 130.043 84.259 C 125.094 79.49 121.917 76.513 116.41 71.245 C 120.459 66.968 123.614 63.445 126.738 59.238 L 119.921 51.042 C 116.529 46.957 116.129 46.608 114.516 44.892 C 75.061 51.293 45.148 85.32 45.148 126.648 C 45.148 172.572 82.076 209.5 128 209.5 C 173.924 209.5 210.852 172.572 210.852 126.648 C 210.852 84.359 179.53 49.721 138.712 44.5 Z"/>
 <g opacity=".4">
  <linearGradient id="_lgradient_58" x1=".517" x2=".517" y1="0" y2="1">
   <stop offset="0%" style="stop-color:rgb(255,255,255)"/>
   <stop offset="12.5%" stop-opacity=".098" style="stop-color:rgb(255,255,255)"/>
   <stop offset="92.5%" stop-opacity=".098" style="stop-color:rgb(0,0,0)"/>
   <stop offset="100%" stop-opacity=".498" style="stop-color:rgb(0,0,0)"/>
  </linearGradient>
  <path fill="none" stroke="url(#_lgradient_58)" stroke-linecap="round" stroke-linejoin="round" stroke-width="4.077" d="M 165.685 11.947 C 239.74 11.947 250.324 22.504 250.324 96.491 L 250.324 155.742 C 250.324 229.728 239.74 240.285 165.685 240.285 L 90.315 240.285 C 16.26 240.285 5.676 229.728 5.676 155.742 L 5.676 96.491 C 5.676 22.504 16.26 11.947 90.315 11.947 L 165.685 11.947 Z" vector-effect="non-scaling-stroke"/>
 </g>
 <g opacity=".1">
  <path fill="#FFFFFF" d="M 5.676 126.116 L 5.676 155.742 C 5.676 229.728 16.26 240.285 90.315 240.285 L 165.685 240.285 C 239.74 240.285 250.324 229.728 250.324 155.742 L 250.324 126.116 L 5.676 126.116 Z"/>
 </g>
</svg>
